static/img/pages/home/test-on-ios-android.svg

<?xml version="1.0" encoding="UTF-8" standalone="no"?>
<!-- Created with Inkscape (http://www.inkscape.org/) -->

<svg
   width="31.74999mm"
   height="32.03204mm"
   viewBox="0 0 31.74999 32.03204"
   version="1.1"
   id="svg1"
   xmlns="http://www.w3.org/2000/svg"
   xmlns:svg="http://www.w3.org/2000/svg">
  <defs
     id="defs1" />
  <g
     id="layer1"
     transform="translate(-90.487475,-186.53126)">
    <g
       id="g572"
       transform="matrix(1.1238071,0,0,1.1238071,-995.31071,-432.90864)">
      <g
         style="fill:#ff005f;fill-opacity:1"
         id="g584-2-3-4"
         transform="matrix(1.0782335,0,-0.16422452,1.0782335,964.67854,551.68616)">
        <path
           fill-rule="evenodd"
           clip-rule="evenodd"
           d="M 12.0516,2 H 11.9484 C 10.2682,1.99999 8.93732,1.99997 7.89575,2.14245 6.82382,2.28908 5.95621,2.59803 5.27199,3.29418 4.58778,3.99033 4.28413,4.87308 4.14001,5.9637 3.99997,7.02343 3.99999,8.37751 4,10.087 v 3.8259 c -1e-5,1.7096 -3e-5,3.0637 0.14001,4.1234 0.14412,1.0906 0.44777,1.9734 1.13198,2.6695 0.68422,0.6962 1.55183,1.0051 2.62376,1.1517 C 8.93731,22 10.2682,22 11.9484,22 h 0.1032 c 1.6802,0 3.0111,0 4.0527,-0.1425 1.0719,-0.1466 1.9395,-0.4555 2.6237,-1.1517 0.6842,-0.6961 0.9879,-1.5789 1.132,-2.6695 C 20,16.9766 20,15.6225 20,13.913 V 10.0871 C 20,8.37754 20,7.02343 19.86,5.9637 19.7159,4.87308 19.4122,3.99033 18.728,3.29418 18.0438,2.59803 17.1762,2.28908 16.1043,2.14245 15.0627,1.99997 13.7318,1.99999 12.0516,2 Z M 8.57143,18.5116 c 0,-0.3853 0.307,-0.6976 0.68571,-0.6976 h 5.48576 c 0.3787,0 0.6857,0.3123 0.6857,0.6976 0,0.3853 -0.307,0.6977 -0.6857,0.6977 H 9.25714 c -0.37871,0 -0.68571,-0.3124 -0.68571,-0.6977 z"
           fill="#1c274c"
           id="path1-8-7-1-3"
           style="fill:#ff005f;fill-opacity:1" />
      </g>
      <g
         style="fill:#00cbff;fill-opacity:1"
         id="g584-2-3"
         transform="matrix(1.4251579,0,-0.21706418,1.4251579,967.41883,548.34738)">
        <path
           fill-rule="evenodd"
           clip-rule="evenodd"
           d="M 12.0516,2 H 11.9484 C 10.2682,1.99999 8.93732,1.99997 7.89575,2.14245 6.82382,2.28908 5.95621,2.59803 5.27199,3.29418 4.58778,3.99033 4.28413,4.87308 4.14001,5.9637 3.99997,7.02343 3.99999,8.37751 4,10.087 v 3.8259 c -1e-5,1.7096 -3e-5,3.0637 0.14001,4.1234 0.14412,1.0906 0.44777,1.9734 1.13198,2.6695 0.68422,0.6962 1.55183,1.0051 2.62376,1.1517 C 8.93731,22 10.2682,22 11.9484,22 h 0.1032 c 1.6802,0 3.0111,0 4.0527,-0.1425 1.0719,-0.1466 1.9395,-0.4555 2.6237,-1.1517 0.6842,-0.6961 0.9879,-1.5789 1.132,-2.6695 C 20,16.9766 20,15.6225 20,13.913 V 10.0871 C 20,8.37754 20,7.02343 19.86,5.9637 19.7159,4.87308 19.4122,3.99033 18.728,3.29418 18.0438,2.59803 17.1762,2.28908 16.1043,2.14245 15.0627,1.99997 13.7318,1.99999 12.0516,2 Z M 8.57143,18.5116 c 0,-0.3853 0.307,-0.6976 0.68571,-0.6976 h 5.48576 c 0.3787,0 0.6857,0.3123 0.6857,0.6976 0,0.3853 -0.307,0.6977 -0.6857,0.6977 H 9.25714 c -0.37871,0 -0.68571,-0.3124 -0.68571,-0.6977 z"
           fill="#1c274c"
           id="path1-8-7-1"
           style="fill:#00cbff;fill-opacity:1" />
      </g>
      <path
         d="m 977.61302,563.29666 2.05275,2.42157 v 0 c 0.37781,0.44573 1.10075,0.44573 1.61434,0 v 0 l 6.51093,-5.65033"
         stroke="#323232"
         stroke-width="3.98868"
         stroke-linecap="round"
         stroke-linejoin="round"
         id="path1-85-1"
         style="fill:none;fill-opacity:1;stroke:#ffffff;stroke-width:3.22805;stroke-dasharray:none;stroke-opacity:1" />
      <rect
         style="fill:#f9f9f9;fill-opacity:1;stroke:none;stroke-width:0.745965;stroke-linecap:square;stroke-linejoin:round;stroke-dasharray:none;stroke-opacity:1"
         id="rect587-8-5"
         width="10.553263"
         height="2.1441083"
         x="1076.3145"
         y="582.49432"
         ry="1.0720541"
         transform="matrix(1,0,-0.17332548,0.9848646,0,0)" />
    </g>
  </g>
</svg>

<svg xmlns="http://www.w3.org/2000/svg" width="120" height="121.066" viewBox="0 0 31.75 32.032"><g transform="translate(-1085.798 -619.44)scale(1.1238)"><path fill="#1c274c" fill-rule="evenodd" d="M12.052 2h-.104c-1.68 0-3.01 0-4.052.142-1.072.147-1.94.456-2.624 1.152s-.988 1.58-1.132 2.67C4 7.024 4 8.378 4 10.087v3.826c0 1.71 0 3.064.14 4.123.144 1.09.448 1.974 1.132 2.67s1.552 1.005 2.624 1.152C8.937 22 10.268 22 11.948 22h.104c1.68 0 3.01 0 4.052-.142 1.072-.147 1.94-.456 2.624-1.152s.988-1.58 1.132-2.67c.14-1.06.14-2.414.14-4.123v-3.826c0-1.71 0-3.064-.14-4.123-.144-1.09-.448-1.974-1.132-2.67s-1.552-1.005-2.624-1.152C15.063 2 13.732 2 12.052 2m-3.48 16.512a.69.69 0 0 1 .685-.698h5.486c.379 0 .686.312.686.698a.69.69 0 0 1-.686.697H9.257a.69.69 0 0 1-.686-.697" clip-rule="evenodd" style="fill:#ff005f;fill-opacity:1" transform="matrix(1.07823 0 -.16422 1.07823 964.679 551.686)"/><path fill="#1c274c" fill-rule="evenodd" d="M12.052 2h-.104c-1.68 0-3.01 0-4.052.142-1.072.147-1.94.456-2.624 1.152s-.988 1.58-1.132 2.67C4 7.024 4 8.378 4 10.087v3.826c0 1.71 0 3.064.14 4.123.144 1.09.448 1.974 1.132 2.67s1.552 1.005 2.624 1.152C8.937 22 10.268 22 11.948 22h.104c1.68 0 3.01 0 4.052-.142 1.072-.147 1.94-.456 2.624-1.152s.988-1.58 1.132-2.67c.14-1.06.14-2.414.14-4.123v-3.826c0-1.71 0-3.064-.14-4.123-.144-1.09-.448-1.974-1.132-2.67s-1.552-1.005-2.624-1.152C15.063 2 13.732 2 12.052 2m-3.48 16.512a.69.69 0 0 1 .685-.698h5.486c.379 0 .686.312.686.698a.69.69 0 0 1-.686.697H9.257a.69.69 0 0 1-.686-.697" clip-rule="evenodd" style="fill:#00cbff;fill-opacity:1" transform="matrix(1.42516 0 -.21706 1.42516 967.419 548.347)"/><path stroke="#323232" stroke-linecap="round" stroke-linejoin="round" stroke-width="3.989" d="m977.613 563.297 2.053 2.421v0c.378.446 1.1.446 1.614 0v0l6.511-5.65" style="fill:none;fill-opacity:1;stroke:#fff;stroke-width:3.22805;stroke-dasharray:none;stroke-opacity:1"/><rect width="10.553" height="2.144" x="1076.314" y="582.494" ry="1.072" style="fill:#f9f9f9;fill-opacity:1;stroke:none;stroke-width:.745965;stroke-linecap:square;stroke-linejoin:round;stroke-dasharray:none;stroke-opacity:1" transform="skewX(-9.981)scale(1 .98486)"/></g></svg>
